X: 320
U:~=!turn!
M:6/8
L:1/8
K:B dorian
acA ecA | acA efg | acA ecA | B=GB d2 B | acA ecA | agf edc | !wedge!d(.f.d) !wedge!c(.a.c) | B=GB d2 B !segno!:|


